X: 15063
T: Gerhard Heintzman Piano
R: reel
M: 4/4
K: Gmajor
|:DGBG dGBG|ABcd e2 ef|gaba gedB|A2 BA GEDE|
G2 BG dGBG|ABcd e2 ef|gaba gedB|1 cedB G/G/G GD:|2 cedB G/G/G G2||
|:gfga bgeg|dBge dBAG|gfga bgag|eaab a2 ga|
bgaf gfea|gedB cBAc|Bdge dGBG|1 ADFA G2 Bd:|2 ADFA G3 D||

